!!!COM: Bach, Johann Sebastian
!!!CDT: 1685/3//-1750/7/28/
!!!OTL@@DE: Hilf, Herr Jesu, lass gelingen
!!!AGN: 4-Part Chorale
!!!SCT: BH 368
!!!SCT: BWV 248
**harm	**root	**kern	**kern	**kern	**kern
*	*Iorgan	*Iorgan	*Iorgan	*Iorgan	*Iorgan
!	!	!bass	!tenor	!alto	!soprno
*M3/4	*M3/4	*M3/4	*M3/4	*M3/4	*M3/4
*MM60	*MM60	*MM60	*MM60	*MM60	*MM60
*k[b-e-a-d-g-]	*k[b-e-a-d-g-]	*k[b-e-a-d-g-]	*k[b-e-a-d-g-]	*k[b-e-a-d-g-]	*k[b-e-a-d-g-]
*D-:	*D-:	*D-:	*D-:	*D-:	*D-:
*>[A,A,B]	*>[A,A,B]	*>[A,A,B]	*>[A,A,B]	*>[A,A,B]	*>[A,A,B]
*>A	*>A	*>A	*>A	*>A	*>A
=1-	=1-	=1-	=1-	=1-	=1-
I	4FF	8D-	4d-	4f	4a-
.	.	8E-	.	.	.
Ib	2FF	4F	2A-	2d-	2f
.	.	4D-	.	.	.
=2	=2	=2	=2	=2	=2
V	2CC	2AA-	4.A-	4d-	2e-
.	.	.	.	4c	.
.	.	.	8G-	.	.
vi	4DD	4BB-	4F	4d-	4d-
=3	=3	=3	=3	=3	=3
ii	4GG	8E-	2G-	4B-	4g-
.	.	8D-	.	.	.
v7b	4CC	4C-	.	4e-	4.a-
I	4FF	4D-	8F	4d-	.
.	.	.	16G-	.	16b-
.	.	.	16A-	.	16cc-
=4	=4	=4	=4	=4	=4
IV	2.BB-	8GG-	4A-	2.d-	2.b-
.	.	8AA-	.	.	.
.	.	4BB-	8G-	.	.
.	.	.	8F	.	.
.	.	4GG-	4G-	.	.
=5	=5	=5	=5	=5	=5
I;	2.FF;	2.D-;	2.F;	2.d-;	2.a-;
=6	=6	=6	=6	=6	=6
vi	4DD	4BB-	4d-	4f	4b-
ii	2GG	4E-	2B-	2e-	2g-
.	.	4D-	.	.	.
=7	=7	=7	=7	=7	=7
Vb	4CC	4C	8A-	4e-	2a-
.	.	.	8G-	.	.
I	4FF	8D-	4F	4d-	.
.	.	8C	.	.	.
vi	4DD	8BB-	4F	4d-	4d-
.	.	8AA-	.	.	.
=8	=8	=8	=8	=8	=8
IVb	8BB-	8BB-	8B-	8d-	4g-
V7b	8CC	8C	8A-	8e-	.
I	2FF	4D-	2A-	4e-	2f
.	.	4D-	.	4d-	.
=9	=9	=9	=9	=9	=9
V;	2.CC;	2.AA-;	2.A-;	2.c;	2.e-;
*>B	*>B	*>B	*>B	*>B	*>B
!!linebreak: 2
=10:|!	=10:|!	=10:|!	=10:|!	=10:|!	=10:|!
V	4CC	8AA-	2A-	8e-	4cc
.	.	8BB-	.	8d-	.
Vb	4CC	4C	.	4e-	2a-
V	4CC	4AA-	4c	4e-	.
=11	=11	=11	=11	=11	=11
I	2FF	8D-	2A-	4e-	2f
.	.	8C	.	.	.
.	.	4D-	.	4d-	.
IV	4BB-	4G-	[4G-	4d-	4b-
=12	=12	=12	=12	=12	=12
viioD7	4EE	4C	4G-]	4e-	4a
vib	4DD	4D-	4F	4f	4.b-
IVb	8BB-	4BB-	8B-	8g-	.
vi7	8DD	.	8A-	8f	16cc
.	.	.	.	.	16dd-
=13	=13	=13	=13	=13	=13
vii7d	4EE	4BB-	4G-	8e-	2.cc
.	.	.	.	8d-	.
V7d/vi	4.AA	8AA	8F	4.e-	.
.	.	8GG	8E-	.	.
.	.	4AA	4F	.	.
Vb/vi	8AA	.	.	8c	.
=14	=14	=14	=14	=14	=14
vi;	2.DD;	2.BB-;	2.F;	2.d-;	2.f;
=15	=15	=15	=15	=15	=15
IV	4BB-	8G-	4.G-	4d-	4b-
.	.	8F	.	.	.
viib	4EE	4E-	.	4e-	4cc
.	.	.	8E-	.	.
I	4FF	4D-	4A-	4f	4dd-
=16	=16	=16	=16	=16	=16
Vb	4CC	8C	2A-	8e-	4ee-
.	.	8BB-	.	8d-	.
Vb	4CC	4C	.	4e-	4a-
V7	4CC	4AA-	4E-	4c	4g-
=17	=17	=17	=17	=17	=17
I	4FF	4D-	2D-	4A-	4f
IV	4BB-	2GG-	.	4G-	4b-
IV	4BB-	.	4B-	4d-	4g-
=18	=18	=18	=18	=18	=18
V	4CC	8AA-	4E-	4d-	2.e-
.	.	8GG-	.	.	.
V	2CC	2AA-	4A-	8c	.
.	.	.	.	8B-	.
.	.	.	4G-	4c	.
=19	=19	=19	=19	=19	=19
I;	2.FF;	2.DD-;	2.F;	2.A-;	2.d-;
==	==	==	==	==	==
*-	*-	*-	*-	*-	*-
!!chor2scor: -l 2 -o %b.pmx
!!!YEC: Copyright 1994 by David Huron
!!!YEC: Changes/Additions 2001 by Craig Stuart Sapp
!!!YEN: United States of America
!!!SMA: 371 Bach Chorales, edited by Ludwig Erk, C.F. Peters
!!!PDT: 1850, 1865
!!!ONB: Harmony and Root analysis done manually
